X:1
T:Title
%%score { ( 1 3 ) | ( 2 4 ) }
L:1/8
M:3/4
K:Ab
V:1 treble nm="Grand Piano"
V:3 treble 
V:2 bass 
V:4 bass 
V:1
 z2 z2[Q:1/4=94] [A,CE]2 | [A,CE][CEA] [Ec]2 [Ec]2 | [EB][EA] [DF]2 [DA]2 | [=DB]3 [DF] [DB][Dc] | %4
[M:2/4] [EB]4 |[M:1/4] [Ed]2 |[M:3/4] [Ec][EB] [EA]2 [EG]2 | [DF][DA] [Fd]2 F2 | E3 A Bc | %9
[M:2/4] [CEA]4 |[M:1/4] c2 |[M:3/4] [Fd]2 [Fd]2 (3G,A,B, | c2 c2 cB | A3 [DFA] [=DFB][DAc] | %14
[M:2/4] [GB]4 |[M:1/4] c2 |[M:3/4] [Fd]2 [Fd]2 (3G,A,B, | [Ec]2 [Ec]2 (3[DFB][EAc][EBd] | %18
 [EAc]3 [CEA] [DEB][Ec] |[M:2/4] [CEA]4 |] %20
V:2
 z2 z2 A,,2 | A,,A,, [A,,A,]2 [A,,A,]2 | [B,,G,][C,A,] [D,A,]2 [D,F,]2 | %3
 [B,,F,]3 [B,,B,] [B,,F,][B,,A,] |[M:2/4] [E,G,]4 |[M:1/4] [E,B,]2 | %6
[M:3/4] [A,,A,][B,,G,] [C,A,]2 [C,G,]2 | [D,A,][D,F,] [D,A,]2 [D,A,D]2 | %8
 [E,A,C]3 [E,CE] [E,DE][E,E] |[M:2/4] A,,4 |[M:1/4] E2 |[M:3/4] [D,A,]2 [D,A,]2 (3E,F,G, | %12
 [A,E]2 [A,E]2 [A,E][G,B,E] | [F,CF]3 D, B,,B,, |[M:2/4] E,E, E,2 |[M:1/4] A z | %16
[M:3/4] [D,A,]2 [D,A,]2 (3E,F,G, | A,2 A,2 (3D,C,B,, | E,3 E, E,E, |[M:2/4] A,,4 |] %20
V:3
 x6 | x6 | x6 | x6 |[M:2/4] x4 |[M:1/4] x2 |[M:3/4] x6 | x6 | x6 |[M:2/4] x4 |[M:1/4] x2 | %11
[M:3/4] x6 | x6 | x6 |[M:2/4] EE E2 |[M:1/4] z G |[M:3/4] x6 | x6 | x6 |[M:2/4] x4 |] %20
V:4
 x6 | x6 | x6 | x6 |[M:2/4] x4 |[M:1/4] x2 |[M:3/4] x6 | x6 | x6 |[M:2/4] x4 |[M:1/4] x2 | %11
[M:3/4] x6 | x6 | x6 |[M:2/4] x4 |[M:1/4] A,2 |[M:3/4] x6 | x6 | x6 |[M:2/4] x4 |] %20

